src/img/bg--meka01.svg

<svg width="1166" height="842" viewBox="0 0 1166 842" fill="none" xmlns="http://www.w3.org/2000/svg">
<g clip-path="url(#clip0_862_4851)">
<path d="M-60.068 876.565H-161.05L39.6969 675.846H140.679L-60.068 876.565Z" fill="#232323"/>
<path d="M-36.2184 526.424H4.53793L206.344 324.652H240.945L399.124 166.5H526.253L708.733 -15.9424H600.801L455.814 129.021H395.824L269.146 255.677H151.272L125.826 281.119V337.147L40.8278 422.124H-44.3711L-36.2184 526.424Z" fill="#232323"/>
<path d="M441.935 440.066H335.091L804.676 -29.4395H911.52L441.935 440.066Z" fill="#232323"/>
<path d="M258.424 461.528H133.27L419.109 175.738H544.255L258.424 461.528Z" fill="#232323"/>
<path d="M970.987 -26.0479L803.416 141.487H767.363L558.864 349.95H545.78L420.283 475.426H275.517L249.09 501.841H100.681L4.5382 597.975H-27.1779V691.504H-2.72695L21.7311 663.271H192.923L256.749 599.449H347.803L506.29 440.996H518.995L762.796 197.236H885.831L1109.15 -26.0479H970.987Z" fill="#232323"/>
<path d="M-27.1779 635.032H110.509L189.552 556.009H363.221L533.383 385.869H558.864L784.341 160.431H844.18L1048.9 -44.2539" stroke="#303030" stroke-width="3" stroke-miterlimit="10"/>
<path d="M518.172 527.076H486.177L492.333 520.921H524.328L518.172 527.076Z" fill="#363636"/>
<path d="M530.226 515.024H498.231L504.386 508.869H536.389L530.226 515.024Z" fill="#363636"/>
<path d="M542.287 502.972H510.284L516.447 496.811H548.442L542.287 502.972Z" fill="#363636"/>
<path d="M554.34 490.913H522.345L528.501 484.759H560.496L554.34 490.913Z" fill="#363636"/>
<path d="M566.394 478.862H534.399L540.554 472.707H572.55L566.394 478.862Z" fill="#363636"/>
<path d="M578.448 466.81H546.453L552.608 460.655H584.611L578.448 466.81Z" fill="#363636"/>
<path d="M518.172 527.076H486.177L492.333 520.921H524.328L518.172 527.076Z" fill="#363636"/>
<path d="M530.226 515.024H498.231L504.386 508.869H536.389L530.226 515.024Z" fill="#363636"/>
<path d="M542.287 502.972H510.284L516.447 496.811H548.442L542.287 502.972Z" fill="#363636"/>
<path d="M554.34 490.913H522.345L528.501 484.759H560.496L554.34 490.913Z" fill="#363636"/>
<path d="M566.394 478.862H534.399L540.554 472.707H572.55L566.394 478.862Z" fill="#363636"/>
<path d="M578.448 466.81H546.453L552.608 460.655H584.611L578.448 466.81Z" fill="#363636"/>
<path d="M451.877 251.742H419.882L426.037 245.587H458.04L451.877 251.742Z" fill="#303030"/>
<path d="M451.877 251.742H419.882L426.037 245.587H458.04L451.877 251.742Z" fill="#303030"/>
<path d="M451.877 251.742H419.882L426.037 245.587H458.04L451.877 251.742Z" fill="#303030"/>
<path d="M463.938 239.69H431.935L438.098 233.535H470.093L463.938 239.69Z" fill="#303030"/>
<path d="M463.938 239.69H431.935L438.098 233.535H470.093L463.938 239.69Z" fill="#303030"/>
<path d="M463.938 239.69H431.935L438.098 233.535H470.093L463.938 239.69Z" fill="#303030"/>
<path d="M475.991 227.638H443.996L450.152 221.483H482.147L475.991 227.638Z" fill="#303030"/>
<path d="M475.991 227.638H443.996L450.152 221.483H482.147L475.991 227.638Z" fill="#303030"/>
<path d="M475.991 227.638H443.996L450.152 221.483H482.147L475.991 227.638Z" fill="#303030"/>
<path d="M488.045 215.587H456.05L462.205 209.425H494.2L488.045 215.587Z" fill="#303030"/>
<path d="M488.045 215.587H456.05L462.205 209.425H494.2L488.045 215.587Z" fill="#303030"/>
<path d="M488.045 215.587H456.05L462.205 209.425H494.2L488.045 215.587Z" fill="#303030"/>
<path d="M500.099 203.528H468.103L474.266 197.373H506.261L500.099 203.528Z" fill="#303030"/>
<path d="M500.099 203.528H468.103L474.266 197.373H506.261L500.099 203.528Z" fill="#303030"/>
<path d="M500.099 203.528H468.103L474.266 197.373H506.261L500.099 203.528Z" fill="#303030"/>
<path d="M512.16 191.476H480.164L486.32 185.321H518.315L512.16 191.476Z" fill="#303030"/>
<path d="M512.16 191.476H480.164L486.32 185.321H518.315L512.16 191.476Z" fill="#303030"/>
<path d="M512.16 191.476H480.164L486.32 185.321H518.315L512.16 191.476Z" fill="#303030"/>
<path d="M451.877 251.742H419.882L426.037 245.587H458.04L451.877 251.742Z" fill="#303030"/>
<path d="M451.877 251.742H419.882L426.037 245.587H458.04L451.877 251.742Z" fill="#303030"/>
<path d="M463.938 239.69H431.935L438.098 233.535H470.093L463.938 239.69Z" fill="#303030"/>
<path d="M463.938 239.69H431.935L438.098 233.535H470.093L463.938 239.69Z" fill="#303030"/>
<path d="M475.991 227.638H443.996L450.152 221.483H482.147L475.991 227.638Z" fill="#303030"/>
<path d="M475.991 227.638H443.996L450.152 221.483H482.147L475.991 227.638Z" fill="#303030"/>
<path d="M488.045 215.587H456.05L462.205 209.425H494.2L488.045 215.587Z" fill="#303030"/>
<path d="M488.045 215.587H456.05L462.205 209.425H494.2L488.045 215.587Z" fill="#303030"/>
<path d="M500.099 203.528H468.103L474.266 197.373H506.261L500.099 203.528Z" fill="#303030"/>
<path d="M500.099 203.528H468.103L474.266 197.373H506.261L500.099 203.528Z" fill="#303030"/>
<path d="M512.16 191.476H480.164L486.32 185.321H518.315L512.16 191.476Z" fill="#303030"/>
<path d="M512.16 191.476H480.164L486.32 185.321H518.315L512.16 191.476Z" fill="#303030"/>
<path d="M915.821 135.024H898.399L901.757 131.675H919.171L915.821 135.024Z" fill="#303030"/>
<path d="M922.385 128.462H904.963L908.313 125.112H925.735L922.385 128.462Z" fill="#303030"/>
<path d="M928.942 121.899H911.527L914.876 118.55H932.298L928.942 121.899Z" fill="#303030"/>
<path d="M935.505 115.337H918.09L921.44 111.987H938.862L935.505 115.337Z" fill="#303030"/>
<path d="M942.069 108.774H924.654L928.004 105.425H945.426L942.069 108.774Z" fill="#303030"/>
<path d="M948.633 102.219H931.218L934.568 98.8623H951.982L948.633 102.219Z" fill="#303030"/>
<path d="M915.821 135.024H898.399L901.757 131.675H919.171L915.821 135.024Z" fill="#303030"/>
<path d="M922.385 128.462H904.963L908.313 125.112H925.735L922.385 128.462Z" fill="#303030"/>
<path d="M928.942 121.899H911.527L914.876 118.55H932.298L928.942 121.899Z" fill="#303030"/>
<path d="M935.505 115.337H918.09L921.44 111.987H938.862L935.505 115.337Z" fill="#303030"/>
<path d="M942.069 108.774H924.654L928.004 105.425H945.426L942.069 108.774Z" fill="#303030"/>
<path d="M948.633 102.219H931.218L934.568 98.8623H951.982L948.633 102.219Z" fill="#303030"/>
<path d="M349.965 454.593H301.048L501.802 253.873H550.711L349.965 454.593Z" fill="#303030"/>
<path d="M349.965 454.593H301.048L501.802 253.873H550.711L349.965 454.593Z" fill="#303030"/>
<path d="M665.3 148.315H599.262L870.312 -122.689H936.35L665.3 148.315Z" fill="#363636"/>
<path d="M349.442 689.221H323.03L431.42 580.85H457.825L349.442 689.221Z" fill="#232323"/>
<path d="M198.764 293.249H187.956L200.31 280.896H211.118L198.764 293.249Z" fill="#303030"/>
<path d="M215.714 293.249H204.905L217.26 280.896H228.068L215.714 293.249Z" fill="#303030"/>
<path d="M232.663 293.249H221.855L234.209 280.896H245.017L232.663 293.249Z" fill="#303030"/>
<path d="M359.821 500.309H349.02L361.374 487.957H372.175L359.821 500.309Z" fill="#363636"/>
<path d="M376.77 500.309H365.969L378.324 487.957H389.132L376.77 500.309Z" fill="#363636"/>
<path d="M393.727 500.309H382.919L395.273 487.957H406.081L393.727 500.309Z" fill="#363636"/>
<path d="M359.821 500.309H349.02L361.374 487.957H372.175L359.821 500.309Z" fill="#363636"/>
<path d="M376.77 500.309H365.969L378.324 487.957H389.132L376.77 500.309Z" fill="#363636"/>
<path d="M393.727 500.309H382.919L395.273 487.957H406.081L393.727 500.309Z" fill="#363636"/>
<path d="M107.961 580.105H59.0447L259.799 379.385H308.708L107.961 580.105Z" fill="#363636"/>
<path d="M-93.2084 895.945H-101.361L99.3927 695.226H107.545L-93.2084 895.945Z" fill="#363636"/>
<path d="M523.884 328.56H518.416L653.046 193.952H658.514L523.884 328.56Z" fill="#363636"/>
<path d="M681.111 321.911H654.835L762.688 214.076H788.965L681.111 321.911Z" fill="#303030"/>
<path d="M-36.2183 507.981H-0.250489L194.634 313.122H232.792L405.788 140.156H493.65L675.965 -42.1289" stroke="#303030" stroke-width="3" stroke-miterlimit="10"/>
<path d="M-36.2183 839.88H4.53806L140.013 704.428H211.118L303.725 611.837H379.526L652.323 339.086H689.293L818.304 210.104H893.089L1165.33 -62.0957" stroke="#363636" stroke-width="3" stroke-miterlimit="10"/>
<path d="M-720.071 765.889H-679.315L-543.84 630.444H-472.735L-380.127 537.852H-304.327L-31.53 265.102H5.44698L134.451 136.12H209.243L397.965 -52.5771" stroke="#363636" stroke-width="3" stroke-miterlimit="10"/>
<path d="M410.777 383.844H400.713L406.869 377.689H416.933L410.777 383.844Z" fill="#232323"/>
<path d="M422.83 371.793H412.767L418.922 365.631H428.986L422.83 371.793Z" fill="#232323"/>
<path d="M434.884 359.734H424.821L430.976 353.579H441.04L434.884 359.734Z" fill="#232323"/>
<path d="M446.938 347.682H436.874L443.037 341.527H453.101L446.938 347.682Z" fill="#232323"/>
<path d="M458.999 335.63H448.935L455.091 329.476H465.155L458.999 335.63Z" fill="#232323"/>
<path d="M471.053 323.579H460.989L467.144 317.417H477.208L471.053 323.579Z" fill="#232323"/>
<path d="M248.002 245.715H237.938L244.101 239.561H254.165L248.002 245.715Z" fill="#363636"/>
<path d="M260.063 233.663H249.999L256.155 227.509H266.219L260.063 233.663Z" fill="#363636"/>
<path d="M272.117 221.612H262.053L268.209 215.45H278.272L272.117 221.612Z" fill="#363636"/>
<path d="M284.17 209.553H274.107L280.262 203.398H290.326L284.17 209.553Z" fill="#363636"/>
<path d="M296.224 197.501H286.16L292.323 191.347H302.387L296.224 197.501Z" fill="#363636"/>
<path d="M308.285 185.45H298.221L304.377 179.295H314.44L308.285 185.45Z" fill="#363636"/>
<path d="M248.002 245.715H237.938L244.101 239.561H254.165L248.002 245.715Z" fill="#363636"/>
<path d="M260.063 233.663H249.999L256.155 227.509H266.219L260.063 233.663Z" fill="#363636"/>
<path d="M272.117 221.612H262.053L268.209 215.45H278.272L272.117 221.612Z" fill="#363636"/>
<path d="M284.17 209.553H274.107L280.262 203.398H290.326L284.17 209.553Z" fill="#363636"/>
<path d="M296.224 197.501H286.16L292.323 191.347H302.387L296.224 197.501Z" fill="#363636"/>
<path d="M308.285 185.45H298.221L304.377 179.295H314.44L308.285 185.45Z" fill="#363636"/>
<path d="M25.2668 536.178H15.1958L21.3586 530.023H31.4225L25.2668 536.178Z" fill="#363636"/>
<path d="M37.3205 524.126H27.2566L33.4123 517.972H43.4761L37.3205 524.126Z" fill="#363636"/>
<path d="M49.3741 512.075H39.3104L45.466 505.92H55.5298L49.3741 512.075Z" fill="#363636"/>
<path d="M61.4275 500.023H51.3638L57.5194 493.861H67.5905L61.4275 500.023Z" fill="#363636"/>
<path d="M73.4887 487.964H63.4177L69.5805 481.81H79.6443L73.4887 487.964Z" fill="#363636"/>
<path d="M85.5425 475.912H75.4786L81.6344 469.758H91.6982L85.5425 475.912Z" fill="#363636"/>
<path d="M-29.7619 383.844H-11.7672L50.5411 321.546H75.4787L107.517 289.513V253.874L161.529 199.878H233.436L272.926 160.395H335.721L388.674 107.451H444.741L578.161 -25.9473H459.335L345.004 88.3571H281.701L260.836 109.218V140.936L242.541 159.228H143.12L61.0631 241.271V267.994L48.8734 280.174H4.53816L-34.3142 319.02L-29.7619 383.844Z" fill="#232323"/>
<path d="M-44.3711 371.792H-28.0728L40.4054 303.325H71.5346L80.625 294.229V248.663L150.163 179.137H232.792L305.823 106.119H354.388L373.227 87.2831H419.882L555.858 -48.6699" stroke="#363636" stroke-width="3" stroke-miterlimit="10"/>
<path d="M666.03 126.787H655.966L662.122 120.633H672.186L666.03 126.787Z" fill="#232323"/>
<path d="M678.084 114.736H668.02L674.176 108.574H684.247L678.084 114.736Z" fill="#232323"/>
<path d="M690.145 102.677H680.074L686.237 96.5225H696.3L690.145 102.677Z" fill="#232323"/>
<path d="M702.198 90.6253H692.134L698.29 84.4707H708.354L702.198 90.6253Z" fill="#232323"/>
<path d="M714.252 78.5736H704.188L710.344 72.4189H720.408L714.252 78.5736Z" fill="#232323"/>
<path d="M726.306 66.5222H716.242L722.398 60.3604H732.469L726.306 66.5222Z" fill="#232323"/>
<path d="M413.59 54.4779H403.526L409.682 48.3232H419.753L413.59 54.4779Z" fill="#363636"/>
<path d="M425.651 42.4264H415.58L421.742 36.2646H431.806L425.651 42.4264Z" fill="#363636"/>
<path d="M437.704 30.3675H427.641L433.796 24.2129H443.86L437.704 30.3675Z" fill="#363636"/>
<path d="M449.758 18.3158H439.694L445.85 12.1611H455.914L449.758 18.3158Z" fill="#363636"/>
<path d="M461.812 6.26401H451.748L457.911 0.109375H467.974L461.812 6.26401Z" fill="#363636"/>
<path d="M413.59 54.4779H403.526L409.682 48.3232H419.753L413.59 54.4779Z" fill="#363636"/>
<path d="M425.651 42.4264H415.58L421.742 36.2646H431.806L425.651 42.4264Z" fill="#363636"/>
<path d="M437.704 30.3675H427.641L433.796 24.2129H443.86L437.704 30.3675Z" fill="#363636"/>
<path d="M449.758 18.3158H439.694L445.85 12.1611H455.914L449.758 18.3158Z" fill="#363636"/>
<path d="M461.812 6.26401H451.748L457.911 0.109375H467.974L461.812 6.26401Z" fill="#363636"/>
</g>
<defs>
<clipPath id="clip0_862_4851">
<rect width="1166" height="841.143" fill="white"/>
</clipPath>
</defs>
</svg>

<svg width="1166" height="842" fill="none" xmlns="http://www.w3.org/2000/svg"><g clip-path="url(#a)"><path d="M-60.068 876.565H-161.05L39.697 675.846h100.982L-60.068 876.565ZM-36.218 526.424H4.538l201.806-201.772h34.601L399.124 166.5h127.129l182.48-182.442H600.801L455.814 129.02h-59.99L269.146 255.677H151.272l-25.446 25.442v56.028l-84.998 84.977h-85.2l8.154 104.3ZM441.935 440.066H335.091L804.676-29.439H911.52L441.935 440.065Z" fill="#232323"/><path d="M258.424 461.528H133.27l285.839-285.79h125.146l-285.831 285.79Z" fill="#232323"/><path d="M970.987-26.048 803.416 141.487h-36.053L558.864 349.95H545.78L420.283 475.426H275.517l-26.427 26.415H100.681L4.538 597.975h-31.716v93.529h24.451l24.458-28.233h171.192l63.826-63.822h91.054L506.29 440.996h12.705l243.801-243.76h123.035L1109.15-26.048H970.987Z" fill="#232323"/><path d="M-27.178 635.032H110.51l79.043-79.023h173.669l170.162-170.14h25.481l225.477-225.438h59.839L1048.9-44.254" stroke="#303030" stroke-width="3" stroke-miterlimit="10"/><path d="M518.172 527.076h-31.995l6.156-6.155h31.995l-6.156 6.155ZM530.226 515.024h-31.995l6.155-6.155h32.003l-6.163 6.155ZM542.287 502.972h-32.003l6.163-6.161h31.995l-6.155 6.161ZM554.34 490.913h-31.995l6.156-6.154h31.995l-6.156 6.154ZM566.394 478.862h-31.995l6.155-6.155h31.996l-6.156 6.155ZM578.448 466.81h-31.995l6.155-6.155h32.003l-6.163 6.155Z" fill="#363636"/><path d="M518.172 527.076h-31.995l6.156-6.155h31.995l-6.156 6.155ZM530.226 515.024h-31.995l6.155-6.155h32.003l-6.163 6.155ZM542.287 502.972h-32.003l6.163-6.161h31.995l-6.155 6.161ZM554.34 490.913h-31.995l6.156-6.154h31.995l-6.156 6.154ZM566.394 478.862h-31.995l6.155-6.155h31.996l-6.156 6.155ZM578.448 466.81h-31.995l6.155-6.155h32.003l-6.163 6.155Z" fill="#363636"/><path d="M451.877 251.742h-31.995l6.155-6.155h32.003l-6.163 6.155Z" fill="#303030"/><path d="M451.877 251.742h-31.995l6.155-6.155h32.003l-6.163 6.155Z" fill="#303030"/><path d="M451.877 251.742h-31.995l6.155-6.155h32.003l-6.163 6.155ZM463.938 239.69h-32.003l6.163-6.155h31.995l-6.155 6.155Z" fill="#303030"/><path d="M463.938 239.69h-32.003l6.163-6.155h31.995l-6.155 6.155Z" fill="#303030"/><path d="M463.938 239.69h-32.003l6.163-6.155h31.995l-6.155 6.155ZM475.991 227.638h-31.995l6.156-6.155h31.995l-6.156 6.155Z" fill="#303030"/><path d="M475.991 227.638h-31.995l6.156-6.155h31.995l-6.156 6.155Z" fill="#303030"/><path d="M475.991 227.638h-31.995l6.156-6.155h31.995l-6.156 6.155ZM488.045 215.587H456.05l6.155-6.162H494.2l-6.155 6.162Z" fill="#303030"/><path d="M488.045 215.587H456.05l6.155-6.162H494.2l-6.155 6.162Z" fill="#303030"/><path d="M488.045 215.587H456.05l6.155-6.162H494.2l-6.155 6.162ZM500.099 203.528h-31.996l6.163-6.155h31.995l-6.162 6.155Z" fill="#303030"/><path d="M500.099 203.528h-31.996l6.163-6.155h31.995l-6.162 6.155Z" fill="#303030"/><path d="M500.099 203.528h-31.996l6.163-6.155h31.995l-6.162 6.155ZM512.16 191.476h-31.996l6.156-6.155h31.995l-6.155 6.155Z" fill="#303030"/><path d="M512.16 191.476h-31.996l6.156-6.155h31.995l-6.155 6.155Z" fill="#303030"/><path d="M512.16 191.476h-31.996l6.156-6.155h31.995l-6.155 6.155ZM451.877 251.742h-31.995l6.155-6.155h32.003l-6.163 6.155Z" fill="#303030"/><path d="M451.877 251.742h-31.995l6.155-6.155h32.003l-6.163 6.155ZM463.938 239.69h-32.003l6.163-6.155h31.995l-6.155 6.155Z" fill="#303030"/><path d="M463.938 239.69h-32.003l6.163-6.155h31.995l-6.155 6.155ZM475.991 227.638h-31.995l6.156-6.155h31.995l-6.156 6.155Z" fill="#303030"/><path d="M475.991 227.638h-31.995l6.156-6.155h31.995l-6.156 6.155ZM488.045 215.587H456.05l6.155-6.162H494.2l-6.155 6.162Z" fill="#303030"/><path d="M488.045 215.587H456.05l6.155-6.162H494.2l-6.155 6.162ZM500.099 203.528h-31.996l6.163-6.155h31.995l-6.162 6.155Z" fill="#303030"/><path d="M500.099 203.528h-31.996l6.163-6.155h31.995l-6.162 6.155ZM512.16 191.476h-31.996l6.156-6.155h31.995l-6.155 6.155Z" fill="#303030"/><path d="M512.16 191.476h-31.996l6.156-6.155h31.995l-6.155 6.155ZM915.821 135.024h-17.422l3.358-3.349h17.414l-3.35 3.349ZM922.385 128.462h-17.422l3.35-3.35h17.422l-3.35 3.35ZM928.942 121.899h-17.415l3.349-3.349h17.422l-3.356 3.349ZM935.505 115.337H918.09l3.35-3.35h17.422l-3.357 3.35ZM942.069 108.774h-17.415l3.35-3.349h17.422l-3.357 3.349ZM948.633 102.219h-17.415l3.35-3.357h17.414l-3.349 3.357Z" fill="#303030"/><path d="M915.821 135.024h-17.422l3.358-3.349h17.414l-3.35 3.349ZM922.385 128.462h-17.422l3.35-3.35h17.422l-3.35 3.35ZM928.942 121.899h-17.415l3.349-3.349h17.422l-3.356 3.349ZM935.505 115.337H918.09l3.35-3.35h17.422l-3.357 3.35ZM942.069 108.774h-17.415l3.35-3.349h17.422l-3.357 3.349ZM948.633 102.219h-17.415l3.35-3.357h17.414l-3.349 3.357ZM349.965 454.593h-48.917l200.754-200.72h48.909l-200.746 200.72Z" fill="#303030"/><path d="M349.965 454.593h-48.917l200.754-200.72h48.909l-200.746 200.72Z" fill="#303030"/><path d="M665.3 148.315h-66.038l271.05-271.004h66.038L665.3 148.315Z" fill="#363636"/><path d="M349.442 689.221H323.03L431.42 580.85h26.405L349.442 689.221Z" fill="#232323"/><path d="M198.764 293.249h-10.808l12.354-12.353h10.808l-12.354 12.353ZM215.714 293.249h-10.809l12.355-12.353h10.808l-12.354 12.353ZM232.663 293.249h-10.808l12.354-12.353h10.808l-12.354 12.353Z" fill="#303030"/><path d="M359.821 500.309H349.02l12.354-12.352h10.801l-12.354 12.352ZM376.77 500.309h-10.801l12.355-12.352h10.808l-12.362 12.352ZM393.727 500.309h-10.808l12.354-12.352h10.808l-12.354 12.352Z" fill="#363636"/><path d="M359.821 500.309H349.02l12.354-12.352h10.801l-12.354 12.352ZM376.77 500.309h-10.801l12.355-12.352h10.808l-12.362 12.352ZM393.727 500.309h-10.808l12.354-12.352h10.808l-12.354 12.352ZM107.961 580.105H59.045l200.754-200.72h48.909l-200.747 200.72ZM-93.208 895.945h-8.153L99.393 695.226h8.152L-93.208 895.945ZM523.884 328.56h-5.468l134.63-134.608h5.468L523.884 328.56Z" fill="#363636"/><path d="M681.111 321.911h-26.276l107.853-107.835h26.277L681.111 321.911Z" fill="#303030"/><path d="M-36.218 507.981H-.25l194.884-194.859h38.158l172.996-172.966h87.862L675.965-42.129" stroke="#303030" stroke-width="3" stroke-miterlimit="10"/><path d="M-36.218 839.88H4.538l135.475-135.452h71.105l92.607-92.591h75.801l272.797-272.751h36.97l129.011-128.982h74.785l272.241-272.2M-720.071 765.889h40.756l135.475-135.445h71.105l92.608-92.592h75.8l272.797-272.75H5.447L134.451 136.12h74.792L397.965-52.577" stroke="#363636" stroke-width="3" stroke-miterlimit="10"/><path d="M410.777 383.844h-10.064l6.156-6.155h10.064l-6.156 6.155ZM422.83 371.793h-10.063l6.155-6.162h10.064l-6.156 6.162ZM434.884 359.734h-10.063l6.155-6.155h10.064l-6.156 6.155ZM446.938 347.682h-10.064l6.163-6.155h10.064l-6.163 6.155ZM458.999 335.63h-10.064l6.156-6.154h10.064l-6.156 6.154ZM471.053 323.579h-10.064l6.155-6.162h10.064l-6.155 6.162Z" fill="#232323"/><path d="M248.002 245.715h-10.064l6.163-6.154h10.064l-6.163 6.154ZM260.063 233.663h-10.064l6.156-6.154h10.064l-6.156 6.154ZM272.117 221.612h-10.064l6.156-6.162h10.063l-6.155 6.162ZM284.17 209.553h-10.063l6.155-6.155h10.064l-6.156 6.155ZM296.224 197.501H286.16l6.163-6.154h10.064l-6.163 6.154ZM308.285 185.45h-10.064l6.156-6.155h10.063l-6.155 6.155Z" fill="#363636"/><path d="M248.002 245.715h-10.064l6.163-6.154h10.064l-6.163 6.154ZM260.063 233.663h-10.064l6.156-6.154h10.064l-6.156 6.154ZM272.117 221.612h-10.064l6.156-6.162h10.063l-6.155 6.162ZM284.17 209.553h-10.063l6.155-6.155h10.064l-6.156 6.155ZM296.224 197.501H286.16l6.163-6.154h10.064l-6.163 6.154ZM308.285 185.45h-10.064l6.156-6.155h10.063l-6.155 6.155ZM25.267 536.178H15.196l6.163-6.155h10.063l-6.155 6.155ZM37.32 524.126H27.258l6.155-6.154h10.064l-6.155 6.154ZM49.374 512.075H39.31l6.156-6.155H55.53l-6.156 6.155ZM61.428 500.023H51.364l6.155-6.162h10.072l-6.163 6.162ZM73.489 487.964H63.418l6.163-6.154h10.063l-6.155 6.154ZM85.543 475.912H75.478l6.155-6.154h10.064l-6.155 6.154Z" fill="#363636"/><path d="M-29.762 383.844h17.995l62.308-62.298H75.48l32.038-32.033v-35.639l54.012-53.996h71.907l39.49-39.483h62.795l52.953-52.944h56.067l133.42-133.398H459.335L345.004 88.357h-63.303l-20.865 20.861v31.718l-18.295 18.292H143.12l-82.057 82.043v26.723l-12.19 12.18H4.538l-38.852 38.846 4.552 64.824Z" fill="#232323"/><path d="M-44.371 371.792h16.298l68.478-68.467h31.13l9.09-9.096v-45.566l69.538-69.526h82.629l73.031-73.018h48.565l18.839-18.836h46.655L555.858-48.67" stroke="#363636" stroke-width="3" stroke-miterlimit="10"/><path d="M666.03 126.787h-10.064l6.156-6.154h10.064l-6.156 6.154ZM678.084 114.736H668.02l6.156-6.162h10.071l-6.163 6.162ZM690.145 102.677h-10.071l6.163-6.155H696.3l-6.155 6.155ZM702.198 90.625h-10.064l6.156-6.154h10.064l-6.156 6.154ZM714.252 78.574h-10.064l6.156-6.155h10.064l-6.156 6.155ZM726.306 66.522h-10.064l6.156-6.162h10.071l-6.163 6.162Z" fill="#232323"/><path d="M413.59 54.478h-10.064l6.156-6.155h10.071l-6.163 6.155ZM425.651 42.426H415.58l6.162-6.161h10.064l-6.155 6.161ZM437.704 30.367h-10.063l6.155-6.154h10.064l-6.156 6.154ZM449.758 18.316h-10.064l6.156-6.155h10.064l-6.156 6.155ZM461.812 6.264h-10.064l6.163-6.155h10.063l-6.162 6.155Z" fill="#363636"/><path d="M413.59 54.478h-10.064l6.156-6.155h10.071l-6.163 6.155ZM425.651 42.426H415.58l6.162-6.161h10.064l-6.155 6.161ZM437.704 30.367h-10.063l6.155-6.154h10.064l-6.156 6.154ZM449.758 18.316h-10.064l6.156-6.155h10.064l-6.156 6.155ZM461.812 6.264h-10.064l6.163-6.155h10.063l-6.162 6.155Z" fill="#363636"/></g><defs><clipPath id="a"><path fill="#fff" d="M0 0h1166v841.143H0z"/></clipPath></defs></svg>
